X:1
T:Avron, 76.76.77.76
T:Avron, 76.76.77.76
T:W. D. Styer, 1888
T:Public Domain Courtesy of the Cyber Hymnal™
C:W. D. Styer, 1888
Z:Public Domain
Z:Courtesy of the Cyber Hymnal™
%%score ( 1 2 ) ( 3 4 )
L:1/8
Q:1/4=82
M:2/4
K:Bb
V:1 treble 
V:2 treble 
V:3 bass 
V:4 bass 
V:1
 [DF][DF] [^CG][DF] | [FB][Fc] [Fd]2 | [Ee][D=B] [Ec]2 | [Fd][DB] [DF]2 | [DF][DF] [^CG][DF] | %5
 [EG][FG] [Ee]2 | [Fd][FB] [FA]2 | [=EG][Ec] F2 | [EF][EF] [EG][EF] | [EA][EG] [EF]2 | %10
 [DF][DF] [EG][DF] | [FB][Fc] [Fd]2 | [Fd][Fd] [^Fd][Fc] | [Gc][GB] (AG) | [DF][Ge] [Fd]2 | %15
 [Ec][EF] [DB]2 |] %16
V:2
 x4 | x4 | x4 | x4 | x4 | x4 | x4 | x2 F2 | x4 | x4 | x4 | x4 | x4 | x2 ^C2 | x4 | x4 |] %16
V:3
 [B,,B,][B,,F,] [B,,=E,][B,,F,] | [D,F,][F,A,] B,2 | [F,A,][F,^G,] [F,A,]2 | %3
 [B,,B,][B,,F,] [B,,B,]2 | [B,,B,][B,,F,] [B,,B,][B,,B,] | [E,B,][D,=B,] [C,C]2 | %6
 [F,B,][F,D] [F,C]2 | [C,B,][C,B,] [F,A,]2 | [F,A,][F,A,] [F,B,][F,A,] | [F,C][F,B,] [F,A,]2 | %10
 [B,,B,][B,,B,] [B,,B,][B,,B,] | [D,B,][F,A,] B,2 | B,B, [A,C][A,D] | [G,D][G,D] (G,A,) | %14
 [F,B,][F,B,] [F,B,]2 | [F,G,][F,A,] [B,,B,]2 |] %16
V:4
 x4 | x2 B,2 | x4 | x4 | x4 | x4 | x4 | x4 | x4 | x4 | x4 | x2 B,2 | B,B, x2 | x2 =E,2 | x4 | x4 |] %16

